packages/components/icon/src/assets/icons/lock.svg

<svg xmlns="http://www.w3.org/2000/svg" fill="none" viewBox="0 0 24 24"><path fill="currentColor" fill-rule="evenodd" d="M8 12V9c0-2.20914 1.79086-4 4-4 2.2091 0 4 1.79086 4 4v3c.5523 0 1 .4477 1 1v5c0 .5523-.4477 1-1 1H8c-.55228 0-1-.4477-1-1v-5c0-.5523.44772-1 1-1zm6 0V9c0-1.10457-.8954-2-2-2s-2 .89543-2 2v3h4zm-2 5c.8284 0 1.5-.6716 1.5-1.5S12.8284 14 12 14s-1.5.6716-1.5 1.5.6716 1.5 1.5 1.5z" clip-rule="evenodd"/></svg>

<svg width="24" height="24" viewBox="0 0 24 24" fill="none" xmlns="http://www.w3.org/2000/svg">
<path fill-rule="evenodd" clip-rule="evenodd" d="M8 12V9C8 6.79086 9.79086 5 12 5C14.2091 5 16 6.79086 16 9V12C16.5523 12 17 12.4477 17 13V18C17 18.5523 16.5523 19 16 19H8C7.44772 19 7 18.5523 7 18V13C7 12.4477 7.44772 12 8 12ZM14 12V9C14 7.89543 13.1046 7 12 7C10.8954 7 10 7.89543 10 9V12H14ZM12 17C12.8284 17 13.5 16.3284 13.5 15.5C13.5 14.6716 12.8284 14 12 14C11.1716 14 10.5 14.6716 10.5 15.5C10.5 16.3284 11.1716 17 12 17Z" fill="currentColor"/>
</svg>
